src/images/gP.svg

<svg width="157" height="46" viewBox="0 0 157 46" fill="none" xmlns="http://www.w3.org/2000/svg">
<path d="M151.183 46H5.81695C2.61099 46 0 43.4075 0 40.25V5.75C0 2.58105 2.61099 0 5.81695 0H151.183C154.386 0 157 2.58105 157 5.75V40.25C157 43.4075 154.386 46 151.183 46Z" fill="black"/>
<path d="M151.183 0.920573C153.872 0.920573 156.073 3.09152 156.073 5.75V40.25C156.073 42.9085 153.886 45.0794 151.183 45.0794H5.81695C3.12799 45.0794 0.927131 42.9085 0.927131 40.25V5.75C0.927131 3.09152 3.11354 0.920573 5.81695 0.920573H151.183ZM151.183 0H5.81695C2.61099 0 0 2.59252 0 5.75V40.25C0 43.419 2.61099 46 5.81695 46H151.183C154.386 46 157 43.419 157 40.25V5.75C157 2.59252 154.386 0 151.183 0Z" fill="#9D9DB4"/>
<path d="M82.7082 15.2166C81.6598 15.2166 80.776 14.8523 80.077 14.1354C79.3838 13.4385 78.9968 12.4778 79.0141 11.497C79.0141 10.4502 79.3723 9.56406 80.077 8.86144C80.7731 8.14449 81.6569 7.78027 82.7053 7.78027C83.7422 7.78027 84.626 8.14449 85.3365 8.86144C86.0413 9.58701 86.3994 10.4732 86.3994 11.497C86.3879 12.5466 86.0297 13.4328 85.3365 14.1325C84.6405 14.8552 83.7567 15.2166 82.7082 15.2166ZM51.5121 15.2166C50.4868 15.2166 49.5972 14.8581 48.8694 14.1497C48.1473 13.4442 47.7805 12.5523 47.7805 11.4998C47.7805 10.4474 48.1473 9.55546 48.8694 8.84997C49.5828 8.14162 50.4724 7.78314 51.5121 7.78314C52.0205 7.78314 52.5144 7.88352 52.988 8.08713C53.4531 8.28501 53.8314 8.55459 54.1116 8.88439L54.1809 8.96755L53.3982 9.7304L53.3173 9.63576C52.8754 9.11381 52.2833 8.85858 51.5006 8.85858C50.8016 8.85858 50.1922 9.10521 49.6897 9.59274C49.1842 10.0831 48.9272 10.7255 48.9272 11.5027C48.9272 12.2799 49.1842 12.9223 49.6897 13.4127C50.1922 13.9002 50.8016 14.1469 51.5006 14.1469C52.2458 14.1469 52.8725 13.9002 53.3606 13.4127C53.6495 13.1259 53.8285 12.7244 53.8921 12.2168H51.3822V11.1442H54.9694L54.9838 11.2417C55.0098 11.4224 55.0358 11.6088 55.0358 11.7809C55.0358 12.7703 54.7354 13.5704 54.1405 14.1612C53.4646 14.8609 52.5808 15.2166 51.5121 15.2166ZM92.9904 15.0646H91.8842L88.4963 9.68164L88.5252 10.651V15.0617H87.419V7.93514H88.6811L88.7158 7.98963L91.9016 13.0599L91.8727 12.0935V7.93514H92.9904V15.0646ZM74.3958 15.0646H73.2752V9.0077H71.3314V7.93514H76.3367V9.0077H74.3929V15.0646H74.3958ZM70.4187 15.0646H69.3009V7.93514H70.4187V15.0646ZM64.1367 15.0646H63.019V9.0077H61.0752V7.93514H66.0805V9.0077H64.1367V15.0646ZM60.3675 15.0531H56.0814V7.93514H60.3675V9.0077H57.202V10.9636H60.0585V12.0247H57.202V13.9805H60.3675V15.0531ZM80.8973 13.3983C81.397 13.8945 82.0035 14.144 82.7082 14.144C83.4332 14.144 84.0253 13.9002 84.5192 13.3983C85.0102 12.9108 85.2586 12.2713 85.2586 11.4998C85.2586 10.7284 85.0102 10.086 84.522 9.60134C84.0224 9.10521 83.413 8.85571 82.7111 8.85571C81.9862 8.85571 81.3941 9.09947 80.9031 9.60134C80.4121 10.0889 80.1637 10.7284 80.1637 11.4998C80.1637 12.2713 80.4092 12.9137 80.8973 13.3983Z" fill="white"/>
<path d="M78.9102 25.0188C76.1808 25.0188 73.9684 27.0751 73.9684 29.9113C73.9684 32.7218 76.1953 34.8039 78.9102 34.8039C81.6396 34.8039 83.852 32.7333 83.852 29.9113C83.852 27.0751 81.6396 25.0188 78.9102 25.0188ZM78.9102 32.8652C77.417 32.8652 76.1317 31.6378 76.1317 29.8999C76.1317 28.1362 77.4199 26.9345 78.9102 26.9345C80.4034 26.9345 81.6887 28.1362 81.6887 29.8999C81.6916 31.6493 80.4034 32.8652 78.9102 32.8652ZM68.1283 25.0188C65.3989 25.0188 63.1865 27.0751 63.1865 29.9113C63.1865 32.7218 65.4134 34.8039 68.1283 34.8039C70.8577 34.8039 73.0701 32.7333 73.0701 29.9113C73.0701 27.0751 70.8549 25.0188 68.1283 25.0188ZM68.1283 32.8652C66.6351 32.8652 65.3498 31.6378 65.3498 29.8999C65.3498 28.1362 66.638 26.9345 68.1283 26.9345C69.6216 26.9345 70.9068 28.1362 70.9068 29.8999C70.9068 31.6493 69.6216 32.8652 68.1283 32.8652ZM55.2987 26.513V28.5835H60.304C60.151 29.745 59.7639 30.6025 59.1718 31.1904C58.4382 31.9188 57.306 32.7103 55.3102 32.7103C52.2342 32.7103 49.8283 30.244 49.8283 27.1898C49.8283 24.1355 52.2342 21.6692 55.3102 21.6692C56.971 21.6692 58.1812 22.3202 59.0794 23.1519L60.5582 21.6835C59.3105 20.4963 57.6497 19.5872 55.3218 19.5872C51.102 19.5872 47.561 22.9999 47.561 27.1783C47.561 31.3682 51.0992 34.7695 55.3218 34.7695C57.6006 34.7695 59.3105 34.0296 60.6622 32.6358C62.0399 31.2678 62.476 29.3378 62.476 27.7805C62.476 27.2959 62.4385 26.86 62.3605 26.49H55.2958C55.2987 26.4872 55.2987 26.513 55.2987 26.513ZM107.775 28.1247C107.362 27.0263 106.115 25.0074 103.556 25.0074C101.02 25.0074 98.9114 26.989 98.9114 29.8999C98.9114 32.6473 100.997 34.7924 103.801 34.7924C106.054 34.7924 107.365 33.4244 107.905 32.6214L106.233 31.5087C105.679 32.3261 104.907 32.8623 103.813 32.8623C102.707 32.8623 101.933 32.3633 101.418 31.3797L108.007 28.6696C108.007 28.6724 107.775 28.1247 107.775 28.1247ZM101.057 29.7594C101.005 27.8695 102.536 26.9087 103.631 26.9087C104.494 26.9087 105.214 27.3303 105.459 27.944L101.057 29.7594ZM95.7054 34.4999H97.8688V20.1263H95.7054V34.4999ZM92.1529 26.1057H92.0749C91.5868 25.5293 90.6597 25.0074 89.4755 25.0074C87.0176 25.0074 84.7532 27.1554 84.7532 29.9142C84.7532 32.6616 87.006 34.7838 89.4755 34.7838C90.6452 34.7838 91.5868 34.259 92.0749 33.6711H92.1529V34.3737C92.1529 36.2406 91.1478 37.2473 89.5275 37.2473C88.2017 37.2473 87.3786 36.3009 87.0436 35.5093L85.1633 36.2894C85.7034 37.5799 87.1446 39.1773 89.5246 39.1773C92.0605 39.1773 94.2093 37.6946 94.2093 34.0783V25.2999H92.1644V26.1057C92.1673 26.1057 92.1529 26.1057 92.1529 26.1057ZM89.669 32.8652C88.1758 32.8652 86.928 31.6263 86.928 29.9142C86.928 28.1878 88.1758 26.9374 89.669 26.9374C91.1478 26.9374 92.2944 28.2021 92.2944 29.9142C92.3089 31.6263 91.1507 32.8652 89.669 32.8652ZM117.905 20.1263H112.732V34.4999H114.895V29.0567H117.908C120.302 29.0567 122.656 27.3332 122.656 24.5973C122.656 21.8613 120.311 20.1263 117.905 20.1263ZM117.968 27.0493H114.892V22.1166H117.968C119.588 22.1166 120.504 23.4444 120.504 24.5829C120.504 25.71 119.577 27.0493 117.968 27.0493ZM131.326 24.993C129.755 24.993 128.135 25.6842 127.465 27.1898L129.383 27.9813C129.796 27.1898 130.552 26.9202 131.352 26.9202C132.473 26.9202 133.605 27.5855 133.631 28.7728V28.9248C133.244 28.7069 132.395 28.3742 131.378 28.3742C129.307 28.3742 127.208 29.4984 127.208 31.6062C127.208 33.5363 128.906 34.7752 130.798 34.7752C132.251 34.7752 133.051 34.1242 133.55 33.3699H133.628V34.4827H135.714V28.9764C135.714 26.4126 133.796 24.993 131.326 24.993ZM131.055 32.8652C130.347 32.8652 129.357 32.5211 129.357 31.6378C129.357 30.5251 130.593 30.1035 131.647 30.1035C132.6 30.1035 133.051 30.3071 133.617 30.5882C133.461 31.8787 132.363 32.8537 131.055 32.8652ZM143.321 25.2999L140.837 31.5345H140.759L138.186 25.2999H135.858L139.72 34.0152L137.519 38.859H139.772L145.713 25.2999H143.321ZM123.849 34.4999H126.012V20.1263H123.849V34.4999Z" fill="white"/>
<path d="M12.0845 8.66361C11.7494 9.02209 11.5559 9.56985 11.5559 10.2868V35.7159C11.5559 36.4328 11.7494 36.9806 12.096 37.3247L12.1855 37.4021L26.5344 23.1548V22.8364L12.174 8.58618L12.0845 8.66361Z" fill="url(#paint0_linear)"/>
<path d="M31.3088 27.9182L26.5229 23.1662V22.8335L31.3088 18.0815L31.4128 18.1446L37.0737 21.3394C38.6941 22.2456 38.6941 23.7426 37.0737 24.6604L31.4128 27.8551L31.3088 27.9182Z" fill="url(#paint1_linear)"/>
<path d="M31.4127 27.8552L26.5229 23L12.0845 37.3363C12.613 37.8984 13.4997 37.9615 14.4904 37.4137L31.4127 27.8552Z" fill="url(#paint2_linear)"/>
<path d="M31.4127 18.1448L14.4904 8.60067C13.4997 8.03857 12.6101 8.11601 12.0845 8.6781L26.5229 23L31.4127 18.1448Z" fill="url(#paint3_linear)"/>
<path opacity="0.2" d="M31.3086 27.752L14.5019 37.233C13.5632 37.7693 12.7256 37.732 12.1855 37.2445L12.0959 37.3334L12.1855 37.4108C12.7256 37.8955 13.5632 37.9356 14.5019 37.3993L31.4242 27.8552L31.3086 27.752Z" fill="black"/>
<path opacity="0.12" d="M37.0736 24.4941L31.2942 27.752L31.3982 27.8552L37.0592 24.6605C37.8708 24.2016 38.2693 23.5994 38.2693 23C38.2202 23.5506 37.8072 24.0726 37.0736 24.4941Z" fill="black"/>
<path opacity="0.25" d="M14.4904 8.76689L37.0737 21.5058C37.8073 21.9159 38.2203 22.4522 38.2839 22.9999C38.2839 22.4006 37.8853 21.7983 37.0737 21.3395L14.4904 8.60055C12.8701 7.67998 11.5559 8.44856 11.5559 10.2868V10.4532C11.5559 8.61202 12.8701 7.85778 14.4904 8.76689Z" fill="white"/>
<defs>
<linearGradient id="paint0_linear" x1="25.2475" y1="10.013" x2="2.28477" y2="16.1751" gradientUnits="userSpaceOnUse">
<stop stop-color="#00A0FF"/>
<stop offset="0.00657" stop-color="#00A1FF"/>
<stop offset="0.2601" stop-color="#00BEFF"/>
<stop offset="0.5122" stop-color="#00D2FF"/>
<stop offset="0.7604" stop-color="#00DFFF"/>
<stop offset="1" stop-color="#00E3FF"/>
</linearGradient>
<linearGradient id="paint1_linear" x1="39.1868" y1="22.9999" x2="11.1622" y2="22.9999" gradientUnits="userSpaceOnUse">
<stop stop-color="#FFE000"/>
<stop offset="0.4087" stop-color="#FFBD00"/>
<stop offset="0.7754" stop-color="#FFA500"/>
<stop offset="1" stop-color="#FF9C00"/>
</linearGradient>
<linearGradient id="paint2_linear" x1="28.7526" y1="25.6412" x2="10.4938" y2="56.5913" gradientUnits="userSpaceOnUse">
<stop stop-color="#FF3A44"/>
<stop offset="1" stop-color="#C31162"/>
</linearGradient>
<linearGradient id="paint3_linear" x1="8.44885" y1="0.205566" x2="16.5948" y2="14.0283" gradientUnits="userSpaceOnUse">
<stop stop-color="#32A071"/>
<stop offset="0.0685" stop-color="#2DA771"/>
<stop offset="0.4762" stop-color="#15CF74"/>
<stop offset="0.8009" stop-color="#06E775"/>
<stop offset="1" stop-color="#00F076"/>
</linearGradient>
</defs>
</svg>

<svg width="157" height="46" fill="none" xmlns="http://www.w3.org/2000/svg"><path d="M151.183 46H5.817C2.61 46 0 43.407 0 40.25V5.75C0 2.581 2.611 0 5.817 0h145.366C154.386 0 157 2.581 157 5.75v34.5c0 3.157-2.614 5.75-5.817 5.75z" fill="#000"/><path d="M151.183.92c2.689 0 4.89 2.172 4.89 4.83v34.5c0 2.658-2.187 4.83-4.89 4.83H5.817c-2.689 0-4.89-2.172-4.89-4.83V5.75c0-2.658 2.187-4.83 4.89-4.83h145.366zm0-.92H5.817C2.61 0 0 2.593 0 5.75v34.5C0 43.419 2.611 46 5.817 46h145.366c3.203 0 5.817-2.581 5.817-5.75V5.75c0-3.157-2.614-5.75-5.817-5.75z" fill="#9D9DB4"/><path d="M82.708 15.217c-1.048 0-1.932-.365-2.631-1.082a3.668 3.668 0 01-1.063-2.638c0-1.047.358-1.933 1.063-2.636.696-.717 1.58-1.08 2.628-1.08 1.037 0 1.921.363 2.632 1.08a3.661 3.661 0 011.062 2.636c-.011 1.05-.37 1.936-1.063 2.636-.695.722-1.58 1.084-2.628 1.084zm-31.196 0a3.671 3.671 0 01-2.643-1.067c-.722-.706-1.088-1.598-1.088-2.65 0-1.053.366-1.945 1.088-2.65.714-.708 1.603-1.067 2.643-1.067.508 0 1.002.1 1.476.304.465.198.843.468 1.124.797l.069.084-.783.762-.08-.094c-.443-.522-1.035-.777-1.817-.777a2.52 2.52 0 00-1.811.734c-.506.49-.763 1.133-.763 1.91 0 .777.257 1.42.763 1.91a2.52 2.52 0 001.81.734c.746 0 1.373-.247 1.86-.734.29-.287.468-.689.532-1.196h-2.51v-1.073h3.587l.015.098c.026.18.052.367.052.539 0 .99-.3 1.79-.895 2.38-.676.7-1.56 1.056-2.629 1.056zm41.478-.152h-1.106l-3.388-5.383.03.969v4.41h-1.107V7.936h1.262l.035.055 3.186 5.07-.03-.966v-4.16h1.118v7.13zm-18.594 0h-1.12V9.008H71.33V7.935h5.006v1.073h-1.944v6.057h.003zm-3.977 0H69.3v-7.13h1.118v7.13zm-6.282 0h-1.118V9.008h-1.944V7.935h5.005v1.073h-1.943v6.057zm-3.77-.012h-4.286V7.935h4.286v1.073h-3.165v1.956h2.857v1.06h-2.857v1.957h3.166v1.072zm20.53-1.655a2.48 2.48 0 001.811.746c.725 0 1.317-.244 1.811-.746.491-.487.74-1.127.74-1.898 0-.772-.249-1.414-.737-1.899a2.487 2.487 0 00-1.81-.745c-.726 0-1.318.243-1.809.745-.49.488-.74 1.127-.74 1.899 0 .771.246 1.414.734 1.898zM78.91 25.019c-2.73 0-4.942 2.056-4.942 4.892 0 2.81 2.227 4.893 4.942 4.893 2.73 0 4.942-2.07 4.942-4.893 0-2.836-2.212-4.892-4.942-4.892zm0 7.846c-1.493 0-2.778-1.227-2.778-2.965 0-1.764 1.288-2.965 2.778-2.965 1.493 0 2.779 1.201 2.779 2.965.003 1.75-1.286 2.965-2.779 2.965zM68.128 25.02c-2.73 0-4.941 2.056-4.941 4.892 0 2.81 2.226 4.893 4.941 4.893 2.73 0 4.942-2.07 4.942-4.893 0-2.836-2.215-4.892-4.942-4.892zm0 7.846c-1.493 0-2.778-1.227-2.778-2.965 0-1.764 1.288-2.965 2.778-2.965 1.494 0 2.779 1.201 2.779 2.965 0 1.75-1.285 2.965-2.779 2.965zm-12.83-6.352v2.07h5.006c-.153 1.162-.54 2.02-1.132 2.607-.734.729-1.866 1.52-3.862 1.52-3.076 0-5.482-2.466-5.482-5.52 0-3.055 2.406-5.52 5.482-5.52 1.661 0 2.871.65 3.77 1.482l1.478-1.469c-1.248-1.187-2.908-2.096-5.236-2.096-4.22 0-7.761 3.413-7.761 7.591 0 4.19 3.538 7.591 7.76 7.591 2.28 0 3.99-.74 5.341-2.133 1.378-1.368 1.814-3.298 1.814-4.856 0-.484-.038-.92-.115-1.29h-7.065c.003-.003.003.023.003.023zm52.477 1.612c-.413-1.099-1.66-3.118-4.219-3.118-2.536 0-4.645 1.982-4.645 4.893 0 2.747 2.086 4.892 4.89 4.892 2.253 0 3.564-1.368 4.104-2.17l-1.672-1.113c-.554.817-1.326 1.353-2.42 1.353-1.106 0-1.88-.499-2.395-1.482l6.589-2.71-.232-.545zm-6.718 1.634c-.052-1.89 1.479-2.85 2.574-2.85.863 0 1.583.421 1.828 1.035l-4.402 1.815zm-5.352 4.74h2.164V20.127h-2.164V34.5zm-3.552-8.393h-.078c-.488-.577-1.415-1.099-2.6-1.099-2.457 0-4.722 2.148-4.722 4.907 0 2.748 2.253 4.87 4.722 4.87 1.17 0 2.112-.525 2.6-1.113h.078v.703c0 1.867-1.005 2.873-2.626 2.873-1.325 0-2.148-.946-2.483-1.738l-1.88.78c.54 1.29 1.98 2.888 4.36 2.888 2.537 0 4.685-1.482 4.685-5.099V25.3h-2.045v.806h-.011zm-2.484 6.76c-1.493 0-2.741-1.24-2.741-2.952 0-1.726 1.248-2.977 2.741-2.977 1.479 0 2.625 1.265 2.625 2.977.015 1.712-1.143 2.951-2.625 2.951zm28.236-12.74h-5.173V34.5h2.163v-5.443h3.013c2.394 0 4.748-1.724 4.748-4.46 0-2.736-2.345-4.47-4.751-4.47zm.063 6.923h-3.076v-4.932h3.076a2.5 2.5 0 012.536 2.466c0 1.127-.927 2.466-2.536 2.466zm13.358-2.056c-1.571 0-3.191.691-3.861 2.197l1.918.791c.413-.791 1.169-1.06 1.969-1.06 1.121 0 2.253.665 2.279 1.852v.152c-.387-.218-1.236-.55-2.253-.55-2.071 0-4.17 1.123-4.17 3.231 0 1.93 1.698 3.17 3.59 3.17 1.453 0 2.253-.652 2.752-1.406h.078v1.113h2.086v-5.507c0-2.563-1.918-3.983-4.388-3.983zm-.271 7.872c-.708 0-1.698-.344-1.698-1.227 0-1.113 1.236-1.535 2.29-1.535.953 0 1.404.204 1.97.485a2.598 2.598 0 01-2.562 2.277zm12.266-7.565l-2.484 6.235h-.078l-2.573-6.235h-2.328l3.862 8.715-2.201 4.844h2.253l5.941-13.56h-2.392zm-19.472 9.2h2.163V20.126h-2.163V34.5z" fill="#fff"/><path d="M12.085 8.664c-.336.358-.53.906-.53 1.623v25.429c0 .717.194 1.265.541 1.609l.09.077 14.348-14.247v-.319l-14.36-14.25-.09.078z" fill="url(#paint0_linear)"/><path d="M31.309 27.918l-4.786-4.752v-.332l4.786-4.753.104.064 5.66 3.194c1.621.907 1.621 2.404 0 3.321l-5.66 3.195-.104.063z" fill="url(#paint1_linear)"/><path d="M31.413 27.855L26.523 23 12.085 37.336c.528.562 1.415.626 2.405.078l16.923-9.559z" fill="url(#paint2_linear)"/><path d="M31.413 18.145L14.49 8.6c-.99-.562-1.88-.485-2.405.077L26.523 23l4.89-4.855z" fill="url(#paint3_linear)"/><path opacity=".2" d="M31.309 27.752l-16.807 9.481c-.939.536-1.776.499-2.317.012l-.09.088.09.078c.54.484 1.378.525 2.317-.012l16.922-9.544-.115-.103z" fill="#000"/><path opacity=".12" d="M37.074 24.494l-5.78 3.258.104.103 5.661-3.195c.812-.458 1.21-1.06 1.21-1.66-.049.55-.462 1.073-1.195 1.494z" fill="#000"/><path opacity=".25" d="M14.49 8.767l22.584 12.739c.733.41 1.146.946 1.21 1.494 0-.6-.399-1.202-1.21-1.66L14.49 8.6c-1.62-.92-2.934-.151-2.934 1.687v.166c0-1.841 1.314-2.595 2.934-1.686z" fill="#fff"/><defs><linearGradient id="paint0_linear" x1="25.247" y1="10.013" x2="2.285" y2="16.175" gradientUnits="userSpaceOnUse"><stop stop-color="#00A0FF"/><stop offset=".007" stop-color="#00A1FF"/><stop offset=".26" stop-color="#00BEFF"/><stop offset=".512" stop-color="#00D2FF"/><stop offset=".76" stop-color="#00DFFF"/><stop offset="1" stop-color="#00E3FF"/></linearGradient><linearGradient id="paint1_linear" x1="39.187" y1="23" x2="11.162" y2="23" gradientUnits="userSpaceOnUse"><stop stop-color="#FFE000"/><stop offset=".409" stop-color="#FFBD00"/><stop offset=".775" stop-color="orange"/><stop offset="1" stop-color="#FF9C00"/></linearGradient><linearGradient id="paint2_linear" x1="28.753" y1="25.641" x2="10.494" y2="56.591" gradientUnits="userSpaceOnUse"><stop stop-color="#FF3A44"/><stop offset="1" stop-color="#C31162"/></linearGradient><linearGradient id="paint3_linear" x1="8.449" y1=".206" x2="16.595" y2="14.028" gradientUnits="userSpaceOnUse"><stop stop-color="#32A071"/><stop offset=".069" stop-color="#2DA771"/><stop offset=".476" stop-color="#15CF74"/><stop offset=".801" stop-color="#06E775"/><stop offset="1" stop-color="#00F076"/></linearGradient></defs></svg>
